X:1
T:Minuet in D Major
T:Minuet in D Major 
T:Mozart
C:Mozart
%%score { ( 1 3 ) | 2 }
L:1/8
M:3/4
K:D
V:1 treble nm="Piano" snm="Pno."
V:3 treble 
V:2 bass 
V:1
 a>g | (f2 d2) c2 | (d2 f2) a>g | (f2 d2) c2 | (d2 f2) a>g | f2 d'2 d'2 | (d'b a^g fe | ae cA B^G | %8
 A4) :: [FA]>[FA] | [FA]2 [GB]2 [Ec]>[Ec] | [Ec]2 [Fd]2 e>e | ef g2 f2 | f2 e2 a>a | a2 ^g2 =g>g | %15
 g2 f2 =f2 | =f2 e2 d2 | [=Fd]2 [Ec]2 a>g | (f2 d2) c2 | d2 f2 a>g | (f2 d2) c2 | d2 f2 d'>=c' | %22
 (b2 G,2) g2 | ge ag | fe fa fd | ec d4 :| %26
V:2
 z2 | z2 z2 A,>G, | (F,2 D,2) C,2 | (D,2 F,2) A,>G, | (F,2 D,2) C,2 | D,2 (DC B,A, | ^G,2) E2 D2 | %7
 C2 E2 E,2 | A,2 A,,2 :: z2 | A,4 z2 | A,,4 z2 | A,,2 C,2 D,2 | A,,4 z2 | A,6- | A,6 | ^G,4 z2 | %17
 A,4 z2 | z2 z2 A,>G, | F,2 D,2 C,2 | D,2 F,2 A,>G, | F,2 D,2 F,2 | G,2 G,F, E,D, | C,4 | %24
 C2 D2 F,2 | A,2 D,4 :| %26
V:3
 x2 | x6 | x6 | x6 | x6 | x6 | x6 | x6 | x4 :: x2 | x6 | x6 | x6 | x6 | B4 c2 | d4 d2 | d4 =F2 | %17
 x6 | x6 | x6 | x6 | x6 | x6 | x4 | x6 | x6 :| %26

